X:8
T:Mrs Murrays Reel. LIT.008
M:2/4
Q:1/4=140
L:1/8
B:Wm. Litten MS, 1802
Z:Village Music Project 2017 Anne Wride
K:F
Ac fc | ec fc | Ac fc | dc df |
Ac fc | df/g/ ag |fd cA |1 F2 Fz :|2 F2 F ||
|: A/B/ | cF AF | cF Bd | AF d/c/B/A/ | G3 A/B/ |
cF AF | fa ga | fd cA |1 F2 F :|2 F2 Fz |]

